images/client3.svg

<svg width="41" height="42" viewBox="0 0 41 42" fill="none" xmlns="http://www.w3.org/2000/svg">
<path d="M6.34547 40.4926C6.36049 40.493 6.37527 40.4961 6.38896 40.5018C6.40265 40.5076 6.41497 40.5157 6.42521 40.5259L6.63098 40.7348C6.47126 40.9039 6.27385 41.0392 6.05225 41.1313C5.79275 41.2319 5.51308 41.2805 5.23174 41.2738C4.96736 41.2788 4.7047 41.2336 4.4601 41.1408C4.23945 41.0557 4.04121 40.9277 3.87879 40.7657C3.71303 40.5976 3.58535 40.4006 3.50326 40.1863C3.41336 39.9474 3.36898 39.696 3.37208 39.4431C3.36843 39.1886 3.41641 38.9358 3.51355 38.6976C3.6034 38.4819 3.73894 38.2849 3.91223 38.1182C4.08787 37.9547 4.29797 37.8262 4.52954 37.7407C4.78288 37.65 5.05265 37.6049 5.32433 37.6077C5.5767 37.602 5.82773 37.6432 6.06254 37.7288C6.26625 37.8104 6.4533 37.9236 6.61555 38.0636L6.44321 38.2868C6.43131 38.3025 6.41651 38.3162 6.39949 38.3271C6.37915 38.34 6.35458 38.3459 6.33004 38.3438C6.30334 38.3421 6.27761 38.3339 6.25545 38.32L6.16285 38.2607L6.03424 38.1847C5.97873 38.1565 5.92114 38.1319 5.86191 38.1111C5.78562 38.0859 5.70738 38.066 5.62785 38.0517C5.52691 38.0345 5.42439 38.0266 5.32176 38.028C5.12612 38.0257 4.93197 38.0596 4.75075 38.1277C4.58174 38.1908 4.42918 38.2863 4.3032 38.4079C4.17494 38.5372 4.0761 38.689 4.01254 38.8543C3.9401 39.0433 3.9044 39.2426 3.90709 39.4431C3.904 39.6467 3.93969 39.8493 4.01254 40.0415C4.07531 40.2053 4.17231 40.3562 4.29805 40.4855C4.41586 40.6061 4.56188 40.7003 4.72503 40.7609C4.89292 40.8252 5.07314 40.8575 5.25489 40.8559C5.35987 40.8574 5.46481 40.851 5.56869 40.8369C5.7383 40.8178 5.901 40.7634 6.04453 40.6778C6.11653 40.634 6.18449 40.5848 6.24773 40.5306C6.27417 40.5073 6.30895 40.4938 6.34547 40.4926Z" fill="#AFB1B8"/>
<path d="M12.2871 39.4428C12.2903 39.6947 12.2432 39.945 12.1482 40.1812C12.0644 40.3954 11.9323 40.5908 11.7608 40.7545C11.5892 40.9182 11.382 41.0465 11.1528 41.1309C10.6492 41.3082 10.0925 41.3082 9.58896 41.1309C9.36125 41.0452 9.15539 40.9166 8.98452 40.7534C8.81305 40.5867 8.68004 40.3896 8.59356 40.1741C8.40827 39.6958 8.40827 39.1731 8.59356 38.6949C8.6813 38.4792 8.81414 38.2815 8.98452 38.1131C9.15685 37.955 9.3626 37.8314 9.58896 37.7499C10.0919 37.5694 10.6499 37.5694 11.1528 37.7499C11.3813 37.8355 11.588 37.9641 11.7598 38.1274C11.9292 38.2924 12.0612 38.487 12.1482 38.6996C12.2435 38.9374 12.2906 39.1893 12.2871 39.4428ZM11.747 39.4428C11.751 39.2412 11.718 39.0405 11.6492 38.8492C11.5916 38.6853 11.4979 38.5341 11.374 38.4052C11.2534 38.2832 11.1049 38.1875 10.9393 38.125C10.5734 37.9952 10.1684 37.9952 9.80245 38.125C9.63684 38.1875 9.48836 38.2832 9.36776 38.4052C9.24215 38.5334 9.14747 38.6847 9.08997 38.8492C8.9591 39.2357 8.9591 39.6499 9.08997 40.0364C9.14803 40.2006 9.24265 40.3518 9.36776 40.4804C9.48851 40.6016 9.637 40.6965 9.80245 40.7582C10.169 40.8847 10.5728 40.8847 10.9393 40.7582C11.1048 40.6965 11.2533 40.6016 11.374 40.4804C11.4974 40.3511 11.591 40.2 11.6492 40.0364C11.7183 39.8451 11.7513 39.6443 11.747 39.4428Z" fill="#AFB1B8"/>
<path d="M16.3408 40.0651L16.3948 40.1981C16.4154 40.1506 16.4334 40.1079 16.454 40.0651C16.4736 40.0205 16.4959 39.9769 16.5209 39.9345L17.8352 37.7289C17.861 37.6909 17.8841 37.6672 17.9098 37.6601C17.9448 37.6502 17.9814 37.6462 18.0179 37.6482H18.4062V41.2356H17.9458V38.5979C17.9458 38.5646 17.9458 38.5266 17.9458 38.4863C17.9434 38.4452 17.9434 38.4039 17.9458 38.3628L16.6238 40.5993C16.607 40.6328 16.5801 40.6611 16.5464 40.6809C16.5126 40.7007 16.4734 40.7111 16.4334 40.7109H16.3588C16.3188 40.7114 16.2794 40.7011 16.2456 40.6813C16.2118 40.6615 16.185 40.633 16.1685 40.5993L14.8078 38.3486C14.8078 38.3913 14.8078 38.4341 14.8078 38.4768C14.8078 38.5195 14.8078 38.5575 14.8078 38.5907V41.2285H14.3629V37.6482H14.7512C14.7877 37.6462 14.8243 37.6502 14.8593 37.6601C14.8912 37.6747 14.9166 37.699 14.9313 37.7289L16.274 39.9369C16.3003 39.9777 16.3227 40.0206 16.3408 40.0651Z" fill="#AFB1B8"/>
<path d="M21.2871 39.887V41.2307H20.7726V37.6483H21.9198C22.1364 37.6445 22.3523 37.6709 22.5603 37.7267C22.7268 37.7702 22.8812 37.8463 23.013 37.9498C23.1272 38.0468 23.2153 38.1671 23.2702 38.3012C23.3309 38.4473 23.3606 38.6029 23.3576 38.7594C23.3599 38.9165 23.3275 39.0723 23.2625 39.2175C23.2006 39.355 23.1056 39.4776 22.9847 39.576C22.8527 39.6838 22.6976 39.7647 22.5294 39.8134C22.3292 39.8725 22.1197 39.9006 21.9095 39.8965L21.2871 39.887ZM21.2871 39.5024H21.9095C22.0447 39.504 22.1793 39.4856 22.3082 39.4478C22.4145 39.4148 22.5125 39.3623 22.5963 39.2935C22.6736 39.2278 22.7334 39.1466 22.7712 39.0561C22.8133 38.9604 22.8343 38.8579 22.8329 38.7546C22.8389 38.655 22.8213 38.5554 22.7813 38.4628C22.7413 38.3701 22.68 38.2866 22.6014 38.2181C22.4049 38.0765 22.1581 38.0079 21.9095 38.0258H21.2871V39.5024Z" fill="#AFB1B8"/>
<path d="M28.201 41.2355H27.7946C27.7538 41.2369 27.7138 41.2252 27.6814 41.2022C27.6522 41.1799 27.6293 41.1514 27.6145 41.1191L27.2647 40.2525H25.508L25.1453 41.1191C25.132 41.1508 25.1098 41.1787 25.081 41.1999C25.0483 41.2242 25.0072 41.2368 24.9652 41.2355H24.5588L26.1021 37.6479H26.6371L28.201 41.2355ZM25.6546 39.9035H27.1053L26.4931 38.4433C26.4463 38.3335 26.4076 38.2209 26.3773 38.1062L26.3182 38.2937C26.3002 38.3507 26.2796 38.403 26.2616 38.4457L25.6546 39.9035Z" fill="#AFB1B8"/>
<path d="M30.4233 37.6646C30.4541 37.6802 30.4805 37.7022 30.5005 37.7288L32.7511 40.433C32.7511 40.3903 32.7511 40.3475 32.7511 40.3072C32.7511 40.2668 32.7511 40.2265 32.7511 40.1885V37.648H33.2115V41.2355H32.9543C32.9178 41.2365 32.8816 41.2292 32.8489 41.2141C32.8171 41.197 32.7892 41.1745 32.7666 41.1477L30.5185 38.4458C30.521 38.4869 30.521 38.5281 30.5185 38.5692C30.5185 38.6096 30.5185 38.6452 30.5185 38.6784V41.2355H30.0581V37.648H30.3308C30.3626 37.6472 30.3942 37.6529 30.4233 37.6646Z" fill="#AFB1B8"/>
<path d="M37.0029 39.8085V41.2332H36.4884V39.8085L35.066 37.6478H35.5265C35.5661 37.6457 35.6053 37.6566 35.6371 37.6787C35.6651 37.7017 35.6886 37.729 35.7065 37.7594L36.5965 39.1532C36.6325 39.2126 36.6634 39.2672 36.6891 39.3194C36.7148 39.3716 36.7354 39.4215 36.7534 39.4714L36.8203 39.317C36.8452 39.2606 36.8744 39.2059 36.9077 39.1532L37.7848 37.7499C37.8033 37.7219 37.8258 37.6964 37.8517 37.674C37.8822 37.6494 37.9218 37.6366 37.9623 37.6383H38.4279L37.0029 39.8085Z" fill="#AFB1B8"/>
<path d="M16.0862 31.6274C16.31 31.6535 16.5363 31.6749 16.7652 31.6938C20.2358 30.2607 23.1718 27.9152 25.2062 24.9503C27.2406 21.9855 28.2832 18.5329 28.2036 15.0242L24.3788 11.4937C25.1565 15.2294 24.7927 19.0911 23.3282 22.6469C21.8636 26.2027 19.3561 29.3121 16.0862 31.6274Z" fill="#AFB1B8"/>
<path d="M14.7204 31.4632L14.8233 31.4822C18.3175 29.1751 20.9816 25.9535 22.4709 22.2339C23.9603 18.5143 24.2065 14.4678 23.1776 10.6177L17.7298 5.58911C19.9333 9.72249 20.8202 14.3483 20.2875 18.9287C19.7547 23.5091 17.8242 27.8557 14.7204 31.4632Z" fill="#AFB1B8"/>
<path d="M33.1961 19.1697C32.2706 23.025 30.0227 26.502 26.7863 29.0844C25.8411 29.8428 24.8216 30.5184 23.7409 31.1025C26.3763 30.3875 28.7985 29.1235 30.8209 27.4077C32.8433 25.692 34.4119 23.5705 35.4056 21.2068L33.1961 19.1697Z" fill="#AFB1B8"/>
<path d="M32.3293 18.6021L29.1835 15.6985C29.1234 19.009 28.1038 22.2442 26.2307 25.0679C24.3576 27.8915 21.6994 30.2006 18.5323 31.7551H18.5477C19.2535 31.7549 19.9586 31.716 20.6595 31.6388C23.6193 30.5237 26.2339 28.7496 28.2702 26.4748C30.3065 24.2001 31.701 21.4954 32.3293 18.6021Z" fill="#AFB1B8"/>
<path d="M15.1757 3.46876L11.4229 0C8.06808 1.19665 5.18278 3.30031 3.14464 6.03565C1.1065 8.771 0.0104686 12.0106 0 15.3304H0C0.0125737 18.9988 1.3502 22.5585 3.80116 25.4461C6.25213 28.3337 9.67642 30.3844 13.5321 31.2734C16.974 27.4027 18.9892 22.6197 19.2847 17.6194C19.5803 12.6192 18.1409 7.66223 15.1757 3.46876Z" fill="#AFB1B8"/>
<path d="M41 18.0677C40.9864 13.7154 39.1073 9.54496 35.7732 6.46741C32.4391 3.38986 27.921 1.65536 23.2059 1.64283C21.0271 1.64075 18.8668 2.01187 16.8347 2.73735L39.8117 23.9463C40.5984 22.0715 41.0014 20.0782 41 18.0677Z" fill="#AFB1B8"/>
</svg>

<svg width="41" height="42" fill="none" xmlns="http://www.w3.org/2000/svg"><path d="M6.345 40.493a.114.114 0 01.08.033l.206.209c-.16.169-.357.304-.579.396-.26.1-.539.15-.82.143a2.068 2.068 0 01-.772-.133 1.677 1.677 0 01-.581-.375 1.685 1.685 0 01-.376-.58 2.037 2.037 0 01-.13-.743 1.9 1.9 0 01.14-.745c.09-.216.226-.413.4-.58.175-.163.385-.292.617-.377a2.29 2.29 0 01.794-.133c.253-.006.504.035.739.12.203.082.39.196.553.336l-.173.223a.17.17 0 01-.044.04.112.112 0 01-.069.017.16.16 0 01-.075-.024l-.092-.06-.129-.075a1.417 1.417 0 00-.406-.133 1.686 1.686 0 00-.306-.024 1.573 1.573 0 00-.571.1 1.297 1.297 0 00-.448.28c-.128.13-.227.281-.29.446a1.584 1.584 0 00-.106.59c-.003.203.033.405.106.597.062.164.16.315.285.445.118.12.264.214.427.275.168.064.348.096.53.095.105.001.21-.005.314-.02.17-.018.332-.073.476-.158a1.55 1.55 0 00.203-.147.156.156 0 01.097-.038zM12.287 39.443c.003.252-.044.502-.139.738a1.6 1.6 0 01-.387.574 1.762 1.762 0 01-.608.376 2.365 2.365 0 01-1.564 0 1.684 1.684 0 01-.995-.957 2.038 2.038 0 010-1.48c.087-.215.22-.413.39-.58a1.79 1.79 0 01.605-.364c.503-.18 1.06-.18 1.564 0 .228.086.435.214.607.377.17.165.301.36.388.573.095.237.143.49.14.743zm-.54 0a1.655 1.655 0 00-.098-.594 1.23 1.23 0 00-.275-.444 1.212 1.212 0 00-.435-.28c-.366-.13-.77-.13-1.137 0a1.202 1.202 0 00-.712.724c-.13.387-.13.8 0 1.187.058.165.153.316.278.444.12.122.269.217.434.278.367.127.77.127 1.137 0 .166-.062.314-.156.435-.278.123-.129.217-.28.275-.444.07-.19.102-.392.098-.593zM16.34 40.065l.055.133c.02-.047.038-.09.059-.133.02-.044.042-.088.067-.13l1.314-2.206c.026-.038.05-.062.075-.069a.331.331 0 01.108-.012h.388v3.588h-.46v-2.638-.112a1.06 1.06 0 010-.123l-1.322 2.236a.198.198 0 01-.078.082.222.222 0 01-.113.03h-.074a.22.22 0 01-.113-.03.195.195 0 01-.077-.082l-1.361-2.25v2.879h-.445v-3.58h.388a.331.331 0 01.108.012.148.148 0 01.072.069l1.343 2.208c.026.04.049.084.067.128zM21.287 39.887v1.344h-.514v-3.583h1.147c.216-.004.432.023.64.079.167.043.321.12.453.223a.92.92 0 01.257.351c.06.146.09.302.088.458a1.08 1.08 0 01-.096.459.985.985 0 01-.277.358 1.284 1.284 0 01-.456.237c-.2.06-.41.088-.62.084l-.622-.01zm0-.385h.623c.135.002.27-.016.398-.054a.852.852 0 00.288-.154.632.632 0 00.175-.238.723.723 0 00.062-.301.638.638 0 00-.052-.292.685.685 0 00-.18-.245 1.057 1.057 0 00-.691-.192h-.623v1.476zM28.201 41.236h-.406a.185.185 0 01-.114-.034.22.22 0 01-.067-.083l-.35-.867h-1.756l-.363.867a.194.194 0 01-.064.08.185.185 0 01-.116.037h-.406l1.543-3.588h.535l1.564 3.587zm-2.546-1.332h1.45l-.612-1.46a2.466 2.466 0 01-.116-.338l-.059.188c-.018.057-.038.109-.056.152l-.607 1.458zM30.423 37.665c.031.015.058.037.078.064l2.25 2.704v-.126-2.659h.46v3.587h-.257a.236.236 0 01-.105-.02.282.282 0 01-.082-.067l-2.249-2.702c.003.04.003.082 0 .123v2.666h-.46v-3.587h.273c.032 0 .063.005.092.017zM37.003 39.809v1.424h-.515V39.81l-1.422-2.161h.46a.178.178 0 01.111.03c.028.024.052.051.07.081l.89 1.394c.035.06.066.114.092.166.026.053.046.102.064.152l.067-.154c.025-.056.054-.111.088-.164l.877-1.403a.37.37 0 01.067-.076.165.165 0 01.11-.036h.466l-1.425 2.17zM16.086 31.627c.224.027.45.048.68.067 3.47-1.433 6.406-3.779 8.44-6.744 2.035-2.965 3.077-6.417 2.998-9.926l-3.825-3.53a19.02 19.02 0 01-1.05 11.153c-1.465 3.556-3.973 6.665-7.243 8.98z" fill="#AFB1B8"/><path d="M14.72 31.463l.103.02c3.494-2.308 6.159-5.53 7.648-9.25a18.376 18.376 0 00.707-11.615L17.73 5.589c2.203 4.133 3.09 8.76 2.558 13.34-.533 4.58-2.464 8.927-5.568 12.534zM33.196 19.17c-.925 3.855-3.173 7.332-6.41 9.914a20.25 20.25 0 01-3.045 2.018c2.635-.715 5.058-1.979 7.08-3.694 2.022-1.716 3.59-3.838 4.585-6.201l-2.21-2.037z" fill="#AFB1B8"/><path d="M32.33 18.602l-3.146-2.904c-.06 3.311-1.08 6.546-2.953 9.37-1.873 2.823-4.532 5.133-7.699 6.687h.016c.706 0 1.41-.039 2.112-.116 2.96-1.115 5.574-2.89 7.61-5.164 2.037-2.275 3.431-4.98 4.06-7.873zM15.176 3.469L11.423 0c-3.355 1.197-6.24 3.3-8.278 6.036C1.107 8.77.01 12.01 0 15.33.013 19 1.35 22.558 3.801 25.446s5.875 4.938 9.731 5.827c3.442-3.87 5.457-8.653 5.753-13.654.295-5-1.144-9.957-4.11-14.15zM41 18.068c-.014-4.353-1.893-8.523-5.227-11.6-3.334-3.078-7.852-4.813-12.567-4.825a18.915 18.915 0 00-6.371 1.094l22.977 21.21A15.15 15.15 0 0041 18.066z" fill="#AFB1B8"/></svg>
